home/.icons/Gruvbox-Plus-Dark/apps/16/gst-debug-viewer.svg

<svg width="16" height="16" version="1.1" xmlns="http://www.w3.org/2000/svg">
  <defs>
    <style type="text/css" id="current-color-scheme">.ColorScheme-Text { color:#ebdbb2; } .ColorScheme-Highlight { color:#458588; }</style>
  </defs>
  <path class="ColorScheme-Text" fill="currentColor" d="m4.283 4.218c1.334-0.069 2.492 0.822 3.825 0.748 1.114-0.062 3.225-0.966 3.225-0.966-0.186 1.196-0.55 1.981-3.198 2.312-1.431 0.178-3.045-0.8-4.22-0.97-0.774-0.112-1.915 0.238-1.915 0.238s0.767-1.284 2.283-1.362zm4.667 2.666c1.334-0.068 2.491 0.823 3.825 0.748 1.114-0.062 3.225-0.965 3.225-0.965-0.187 1.196-0.55 1.98-3.199 2.311-1.43 0.179-3.044-0.8-4.219-0.97-0.775-0.111-1.915 0.239-1.915 0.239s0.766-1.285 2.283-1.363zm-6.667 3c1.334-0.068 2.492 0.823 3.825 0.748 1.114-0.062 3.225-0.965 3.225-0.965-0.186 1.196-0.55 1.98-3.198 2.311-1.431 0.179-3.045-0.8-4.22-0.97-0.774-0.112-1.915 0.239-1.915 0.239s0.767-1.285 2.283-1.363z"/>
</svg>

<svg xmlns="http://www.w3.org/2000/svg" style="isolation:isolate" width="16" height="16" viewBox="0 0 16 16">
 <defs>
  <style id="current-color-scheme" type="text/css">
   .ColorScheme-Text { color:#ebdbb2; } .ColorScheme-Highlight { color:#458588; }
  </style>
  <linearGradient id="arrongin" x1="0%" x2="0%" y1="0%" y2="100%">
   <stop offset="0%" style="stop-color:#d79921; stop-opacity:1"/>
   <stop offset="100%" style="stop-color:#b57614; stop-opacity:1"/>
  </linearGradient>
  <linearGradient id="aurora" x1="0%" x2="0%" y1="0%" y2="100%">
   <stop offset="0%" style="stop-color:#83a598; stop-opacity:1"/>
   <stop offset="100%" style="stop-color:#b16286; stop-opacity:1"/>
  </linearGradient>
  <linearGradient id="fitdance" x1="0%" x2="0%" y1="0%" y2="100%">
   <stop offset="0%" style="stop-color:#8ec07c; stop-opacity:1"/>
   <stop offset="100%" style="stop-color:#458588; stop-opacity:1"/>
  </linearGradient>
  <linearGradient id="oomox" x1="0%" x2="0%" y1="0%" y2="100%">
   <stop offset="0%" style="stop-color:#458588; stop-opacity:1"/>
   <stop offset="100%" style="stop-color:#928374; stop-opacity:1"/>
  </linearGradient>
  <linearGradient id="rainblue" x1="0%" x2="0%" y1="0%" y2="100%">
   <stop offset="0%" style="stop-color:#b8bb26; stop-opacity:1"/>
   <stop offset="100%" style="stop-color:#076678; stop-opacity:1"/>
  </linearGradient>
  <linearGradient id="sunrise" x1="0%" x2="0%" y1="0%" y2="100%">
   <stop offset="0%" style="stop-color: #fe8019; stop-opacity:1"/>
   <stop offset="100%" style="stop-color: #fabd2f; stop-opacity:1"/>
  </linearGradient>
  <linearGradient id="telinkrin" x1="0%" x2="0%" y1="0%" y2="100%">
   <stop offset="0%" style="stop-color: #83a598; stop-opacity:1"/>
   <stop offset="100%" style="stop-color: #83a598; stop-opacity:1"/>
  </linearGradient>
  <linearGradient id="60spsycho" x1="0%" x2="0%" y1="0%" y2="100%">
   <stop offset="0%" style="stop-color: #fb4934; stop-opacity:1"/>
   <stop offset="25%" style="stop-color: #fabd2f; stop-opacity:1"/>
   <stop offset="50%" style="stop-color: #fe8019; stop-opacity:1"/>
   <stop offset="100%" style="stop-color: #689d6a; stop-opacity:1"/>
  </linearGradient>
  <linearGradient id="90ssummer" x1="0%" x2="0%" y1="0%" y2="100%">
   <stop offset="0%" style="stop-color: #b16286; stop-opacity:1"/>
   <stop offset="20%" style="stop-color: #8ec07c; stop-opacity:1"/>
   <stop offset="50%" style="stop-color: #fabd2f; stop-opacity:1"/>
   <stop offset="100%" style="stop-color: #458588; stop-opacity:1"/>
  </linearGradient>
  <linearGradient id="cyberneon" x1="0%" x2="0%" y1="0%" y2="100%">
    <stop offset="0" style="stop-color:#83a598; stop-opacity:1"/>
    <stop offset="1" style="stop-color:#b16286; stop-opacity:1"/>
  </linearGradient>
  <clipPath id="_clipPath_bPucbP0MW8YsbGTNMb7HE5YRPFOp0Rw7">
   <rect width="16" height="16"/>
  </clipPath>
 </defs>
 <g clip-path="url(#_clipPath_bPucbP0MW8YsbGTNMb7HE5YRPFOp0Rw7)">
  <rect style="fill:currentColor" class="ColorScheme-Text" fill-opacity="0" width="16" height="16"/>
  <path style="fill:currentColor" class="ColorScheme-Text" fill-rule="evenodd" d="M 4.283 4.218 C 5.617 4.149 6.775 5.04 8.108 4.966 C 9.222 4.904 11.333 4 11.333 4 C 11.147 5.196 10.783 5.981 8.135 6.312 C 6.704 6.49 5.09 5.512 3.915 5.342 C 3.141 5.23 2 5.58 2 5.58 C 2 5.58 2.767 4.296 4.283 4.218 L 4.283 4.218 Z M 8.95 6.884 C 10.284 6.816 11.441 7.707 12.775 7.632 C 13.889 7.57 16 6.667 16 6.667 C 15.813 7.863 15.45 8.647 12.801 8.978 C 11.371 9.157 9.757 8.178 8.582 8.008 C 7.807 7.897 6.667 8.247 6.667 8.247 C 6.667 8.247 7.433 6.962 8.95 6.884 L 8.95 6.884 Z M 2.283 9.884 C 3.617 9.816 4.775 10.707 6.108 10.632 C 7.222 10.57 9.333 9.667 9.333 9.667 C 9.147 10.863 8.783 11.647 6.135 11.978 C 4.704 12.157 3.09 11.178 1.915 11.008 C 1.141 10.896 0 11.247 0 11.247 C 0 11.247 0.767 9.962 2.283 9.884 Z"/>
 </g>
</svg>
